X: 39094
T: Sweeney's Dream
R: reel
M: 4/4
K: Dmajor
d2 FG Adef|gfed fdBc|d2 FG A2 AB|AFEG FDDA|
d2 FG Adef|gfed fdBc|d2 FG A2 ag|faef d2||
afbf afdf|gfed cd (3efg|afbf afdf|abag fd (3efg|
afbf afdf|gfed fdBc|d2 FG A2 ag|faef d2||

